icons/1_Primary/Google.svg

<svg xmlns="http://www.w3.org/2000/svg" viewBox="0 0 1024 1024">
   <circle cx="512" cy="512" r="512" style="fill:#4285f4"/>
   <path d="M517.1 475.4v87.8h145.2c-5.9 37.7-43.9 110.4-145.2 110.4-87.4 0-158.7-72.3-158.7-161.6s71.4-161.6 158.7-161.6c49.7 0 83 21.1 102.1 39.4l69.4-66.9C644 281.3 586.2 256 517.1 256c-141.5 0-256 114.5-256 256s114.5 256 256 256c147.8 0 245.8-103.9 245.8-250.2 0-16.8-1.8-29.7-4-42.4H517.1z" style="fill:#fff"/>
</svg>

<svg width="1024" height="1024" viewBox="0 0 1024 1024" fill="none" xmlns="http://www.w3.org/2000/svg">
<g clip-path="url(#clip0_2_2313)">
<path d="M512 1024C794.77 1024 1024 794.77 1024 512C1024 229.23 794.77 0 512 0C229.23 0 0 229.23 0 512C0 794.77 229.23 1024 512 1024Z" fill="#9ABEFF"/>
<path d="M517.1 475.4V563.2H662.3C656.4 600.9 618.4 673.6 517.1 673.6C429.7 673.6 358.4 601.3 358.4 512C358.4 422.7 429.8 350.4 517.1 350.4C566.8 350.4 600.1 371.5 619.2 389.8L688.6 322.9C644 281.3 586.2 256 517.1 256C375.6 256 261.1 370.5 261.1 512C261.1 653.5 375.6 768 517.1 768C664.9 768 762.9 664.1 762.9 517.8C762.9 501 761.1 488.1 758.9 475.4H517.1Z" fill="white"/>
</g>
<defs>
<clipPath id="clip0_2_2313">
<rect width="1024" height="1024" fill="white"/>
</clipPath>
</defs>
</svg>
